-----BEGIN PGP PUBLIC KEY BLOCK-----

mQINBGpiTX4BEADJwqqlXoQIp+UeeRwdx2yY13zL5QL+8FqGp36/32GLNlZpWzXu
yG4SdC9+U6GrFbMIbhwoJ7epMIgCBNzuQZYEYEn3/Lsc2/z87iMez/eGvd/N8t0C
V9LrNTkZgz1J1ibPBlb4msN6gGGN9bvm261mpxkrQFNsJ7ncyh/iS4WybxfxOYbR
UW1aAToz+JSd3V2Fy374oTS3ps3XoJm9/z3fkFQb7s4GzMuwAbCIokYAqWkIni3/
GBof1kIhp779+R7P+xmcDYb+g6nkdC2lQxPWl2e9ZfKTOltKj+UcXhYFWJeVQBsQ
vIajmWnal928YrO+P2lE5v8OYJgFxf+9kPBl9l393TMZMemKcSkSVnm7YMA34frx
7iWmznwVB3p+yvgg5WiysjsLfiLYfH1nEoNC4BGGKmxlUOigcqtpw2PXRq6DPqEm
QWSDCBAEQNlxbbffF+QqEsq2Nz4oRmY5cvIrI1byaU697WxxZnkhUtRhZ6Ld/7tI
iDXgoQLg2m3MHU7WU2CNCn0t36iL0PB5gMKhzQNfRUnyYrD8LBn0A+K6cbT888LX
bI9BLRO+ZJGnepa95bZnMsFsNhJp8JxaoK9wX1fW7AIP8iqOqTggrpjfrW9sIgvi
9Y2GVT+Tr7WE/Pvn0FT+oa+iNJlQ/bNpxd/ZZd5d4PtUS7cj6vxJzI+G0wARAQAB
tC5HUFhTZWUgZmxhdGh1YiByZXBvc2l0b3J5IDxqby5rbGFwc0BnbWFpbC5jb20+
iQJOBBMBCgA4FiEE3Thpe48nfMVDXL6SwYwFj/1YWWAFAmpiTX4CGwMFCwkIBwIG
FQoJCAsCBBYCAwECHgECF4AACgkQwYwFj/1YWWCtJxAAsS6AsEjT4SpCCRsISbDk
oIrMgY4uo63J+YwxEjprNItU/Jzi/jq1DWT9ToesJrBCycFk10wxlrfZ+ON8dFLg
ptFe/Kdv8aYHVwCB+WgHjkzWoSgFTzeJSiWjZ7kOEVznKW0PR2pIrPNoXH+tf7pp
N8msCDfK8thSMyE6rFbHLRM2QIMV/Q2NtLNOMQM8uHjaw948Tsi73Y7Mnh0lcNVS
HEYerTta/AuwPeNQ1Ik/ZxybUYOajbi7JW8n+tfpNNTh3+j/rEzMbPetePS0kiI0
a+Qr0FYnMf4CFMb7y5AhZ0WoAr9HJD7bzK6TtEz7fnlJHPiaq8wHCS3B9RpH5BDs
zNmMdONop0MpOGFe7IypaYqB3phY44X0AD1NqMzBqfYxoCOabfzRVBXQckhihdyr
PptDN30+jM26uRQ1L547WZ0VSHnOxVgA4/8by/PEc0B1y5d+THCZgc/hZqS+pjve
2+hcTAs7Jx/gDsXMenZ0UYl4lEpojBg+v1PbjjKYsrdLiztJWdxb4wl7By42MgFb
JbfRAOyuz/9FelvA3CJK5RSHKxVyRAVjRuWhcyelLxL7DhAn4o5e0jRX/R/NcBk2
nP7NrPpXXg0K1vwIfSXaEfzVaBeuVEti3zgyOtcNEBxTvq/dlJPFjc/wUfVw2BVI
DG4kMskt8UAmVnGJaL36UZ25Ag0EamJNfgEQAM8QwbK5MGkqLIjG7kPqXFwhwrQO
avZT97z59J0by+ChgNh4P28YDCS6JSs1Mu5QYVQ6lzHwG+5S5RG0+Icb7B+xesW+
a/RTzdEVrn9ENqApryAH8xSf2o5CdgOLklgb8nKBuzJNBjFSyjQe5esaWjG+qQRO
CnkLrBnACsvbMw/cNzQHphs72RdMSWthsiv3UMIHYrCUCYxwY+X333TKgo0Dl7np
kEl/mYSeGGS9SXhpwuiRDkym8BjIZ2gL+g3+x+o23yIwJ0VwVbBywNJhqt8uV8yM
lSFOYerPanrUeSzaGh0XpmFnu9EoQvY4upKu1Rm+MGYQklX9C/fK784YmS2oZrHw
qUO4xGWAHNAKP1/KHT5zBfXdSeUw6nBZ0pcok2xZCjDW6D2H4GMgcMlxM9XMOgo7
ckSL8RbYurJ3XgMgKacq2UOPrK4SLSgeQ5zostpysFL2FRuWDGIdN3pgvnoTNz06
+OcogpD4GFOvVmB9rd2YbiWDjsw6Tft8n3KM04glo0yK6RTWwsLMVcmd1OvyTjq1
5AFpmPPgzC5E/vaCyLA2EkhTdu6bWWDbeQttw89Kw1i52/1o8TfxzJKAXAUrA+K9
MbRIl1th9xMIc+TOt/llq3014J4jlySPbbbJ1cRH2Jmr/i4Kz99fdEKiNawz5z9u
69CZjIzYBm2Gz8ohABEBAAGJAjYEGAEKACAWIQTdOGl7jyd8xUNcvpLBjAWP/VhZ
YAUCamJNfgIbDAAKCRDBjAWP/VhZYLKTD/4iX2UuuKRqmjwgv1PLIjSwto+q7EAE
gvdY/3aR5spsy9rkWQFn9zZ6hT/9quyI6NyTST+9cObhNizVN9EEXs7d7hlwFYHf
vwc2bnJ/Bl/RlZfPSf42HKGe5i2nE28FCrpAtPsvGg5Qfqoaxm3Pg66J9OjJfE3+
ISFdZoAiME4y4vmGsm6xrYurqd2cqMflOmvWZBgWObyweMg/cUaVTl6ozya1wA/d
DKqqfqh0VCntyqbQ4JHke1WQK4wWXh82ClK1Z9kDIPE0D+8KIt8uYdSTMvbcSPld
iOWGi6uCvpCcP4x03bBtt4Fqh/KFOaZFinnenSnCh77DFG7sFZBJCc27pGti9Ehs
ZN5lI2RpkDKqbJLqqxdLo947bx2bcEiGcFXr4SUCkA0sltkkXx8wd2e3XaRsleMQ
zhCO0/Dw5b9X+pBLG4Mq5uS9qRopC3DtlSM4iJpKgWGek57+yIwGlJpv4p0sZhWW
WZHiGnEzWaC7QjomreWCDdSU3RYfJkSHjWNKyb7SMfA1ccsY9kR6h2brHWvg5cC1
TviDfd89yip7B+LIzkbjnlWfZ7x72iae5Ua3sEDN5WUlNEjrBSLursFXV0JC3jOs
bGGxlNIMHnjruwZHN1TkpK3QhfCY9RtW2DvAiK0ji5aoxasiTBZAFCqV7KGEHExp
1e+Tb17vFt/WlQ==
=lRCr
-----END PGP PUBLIC KEY BLOCK-----
